N10 (Generated with: DXF2GCODE)
N20 (Version: Py3.11.1 PyQt5.15.8, Date: $Date: Mon Feb 6 21:49:45 2023 +0100 $)
N30 (Created from file: C:/Users/rfranca/Development/SolidWorks/EcoMaua/bolja22/dxf_ofcial_2024/final/output3/bolha_nova_modelo_t_p2.DXF)
N40 (Used Postprocessor: styrofoam_3dtransform.cfg) 
N50 (Output format description: Styrofoam cutting G-CODE for 3D Transform)
N60 (Time: Mon Jun  3 23:18:41 2024)
N70 G21 (Units in millimeters)
N80 G90 (Absolute programming)
N90 G53 (machine coordinate system)
N100 G64 (Default cutting)
N110 G17 (XY plane)
N120 G40 (Cancel radius comp.)
N130 G49 (Cancel length comp.)
N140 F1
N150 G00 Z0.000
N160 M03 (Turn-on Cutter)
N170 G04 P2 (Pause)
N180 
(*** LAYER: 0 ***)
N190 
(* SHAPE Nr: 0 *)
N200 G00 X   0.000 Y   0.000
N210 G01 X   0.000 Y  65.441
N220 G01 X 119.104 Y  69.511
N230 G01 X 238.257 Y  71.139
N240 G01 X 357.441 Y  71.147
N250 G01 X 476.634 Y  70.353
N260 G01 X 595.822 Y  69.484
N270 G01 X1064.046 Y  65.689
N280 G01 X1066.044 Y  65.674
N290 G01 X1281.299 Y  64.102
N300 G01 X1450.430 Y  63.003
N310 G01 X1508.678 Y  64.183
N320 G01 X1564.387 Y  64.049
N330 G01 X1617.625 Y  62.667
N340 G01 X1668.463 Y  60.103
N350 G01 X1716.968 Y  56.423
N360 G01 X1763.210 Y  51.693
N370 G01 X1814.899 Y  44.860
N380 G01 X1863.654 Y  36.768
N390 G01 X1909.587 Y  27.525
N400 G01 X1952.813 Y  17.240
N410 G01 X1952.813 Y   0.000
N420 G00 X   0.000 Y   0.000
N430 M05 (Turn-off Cutter)
N440 M30 (End of Program)