N10 (Generated with: DXF2GCODE)
N20 (Version: Py3.11.1 PyQt5.15.8, Date: $Date: Mon Feb 6 21:49:45 2023 +0100 $)
N30 (Created from file: C:/Users/rfranca/Development/SolidWorks/EcoMaua/bolja22/dxf_ofcial_2024/final/output3/bolha_nova_modelo_s.DXF)
N40 (Used Postprocessor: styrofoam_3dtransform.cfg) 
N50 (Output format description: Styrofoam cutting G-CODE for 3D Transform)
N60 (Time: Mon Jun  3 23:17:49 2024)
N70 G21 (Units in millimeters)
N80 G90 (Absolute programming)
N90 G53 (machine coordinate system)
N100 G64 (Default cutting)
N110 G17 (XY plane)
N120 G40 (Cancel radius comp.)
N130 G49 (Cancel length comp.)
N140 F1
N150 G00 Z0.000
N160 M03 (Turn-on Cutter)
N170 G04 P2 (Pause)
N180 
(*** LAYER: 0 ***)
N190 
(* SHAPE Nr: 0 *)
N200 G00 X   0.000 Y   0.000
N210 G01 X   0.000 Y 602.628
N220 G01 X  64.616 Y 600.589
N230 G01 X 128.319 Y 598.410
N240 G01 X 192.085 Y 595.915
N250 G01 X 256.890 Y 592.931
N260 G01 X 323.711 Y 589.284
N270 G01 X 393.407 Y 584.819
N280 G01 X 461.734 Y 579.859
N290 G01 X 532.226 Y 574.228
N300 G01 X 604.514 Y 567.984
N310 G01 X 678.232 Y 561.186
N320 G01 X 753.013 Y 553.889
N330 G01 X 869.008 Y 541.853
N340 G01 X 985.309 Y 528.989
N350 G01 X1100.588 Y 515.507
N360 G01 X1213.516 Y 501.614
N370 G01 X1282.701 Y 492.765
N380 G01 X1350.103 Y 483.887
N390 G01 X1415.392 Y 475.034
N400 G01 X1478.239 Y 466.256
N410 G01 X1538.315 Y 457.605
N420 G01 X1595.288 Y 449.133
N430 G01 X1648.871 Y 440.878
N440 G01 X1699.229 Y 432.731
N450 G01 X1746.813 Y 424.489
N460 G01 X1792.079 Y 415.949
N470 G01 X1848.563 Y 403.996
N480 G01 X1902.167 Y 391.072
N490 G01 X1952.813 Y 377.261
N500 G01 X1952.813 Y   0.000
N510 G00 X   0.000 Y   0.000
N520 M05 (Turn-off Cutter)
N530 M30 (End of Program)