N10 (Generated with: DXF2GCODE)
N20 (Version: Py3.11.1 PyQt5.15.8, Date: $Date: Mon Feb 6 21:49:45 2023 +0100 $)
N30 (Created from file: C:/Users/rfranca/Development/SolidWorks/EcoMaua/bolja22/dxf_ofcial_2024/final/output2/bolha_nova_modelo_t_p3.DXF)
N40 (Used Postprocessor: styrofoam_3dtransform.cfg) 
N50 (Output format description: Styrofoam cutting G-CODE for 3D Transform)
N60 (Time: Mon Jun  3 23:20:58 2024)
N70 G21 (Units in millimeters)
N80 G90 (Absolute programming)
N90 G53 (machine coordinate system)
N100 G64 (Default cutting)
N110 G17 (XY plane)
N120 G40 (Cancel radius comp.)
N130 G49 (Cancel length comp.)
N140 F1
N150 G00 Z0.000
N160 M03 (Turn-on Cutter)
N170 G04 P2 (Pause)
N180 
(*** LAYER: 0 ***)
N190 
(* SHAPE Nr: 0 *)
N200 G00 X   0.000 Y   0.000
N210 G01 X   0.000 Y  66.387
N220 G01 X  49.078 Y  65.992
N230 G01 X  87.640 Y  65.689
N240 G01 X  89.638 Y  65.674
N250 G01 X 304.893 Y  64.102
N260 G01 X 474.024 Y  63.003
N270 G01 X 532.272 Y  64.183
N280 G01 X 587.980 Y  64.049
N290 G01 X 641.219 Y  62.667
N300 G01 X 692.056 Y  60.103
N310 G01 X 740.562 Y  56.423
N320 G01 X 786.804 Y  51.693
N330 G01 X 838.493 Y  44.860
N340 G01 X 887.247 Y  36.768
N350 G01 X 933.181 Y  27.525
N360 G01 X 976.406 Y  17.240
N370 G01 X 976.406 Y   0.000
N380 G00 X   0.000 Y   0.000
N390 M05 (Turn-off Cutter)
N400 M30 (End of Program)