N10 (Generated with: DXF2GCODE)
N20 (Version: Py3.11.1 PyQt5.15.8, Date: $Date: Mon Feb 6 21:49:45 2023 +0100 $)
N30 (Created from file: C:/Users/rfranca/Development/SolidWorks/EcoMaua/bolja22/dxf_ofcial_2024/final/output2/bolha_nova_modelo_t_p4.DXF)
N40 (Used Postprocessor: styrofoam_3dtransform.cfg) 
N50 (Output format description: Styrofoam cutting G-CODE for 3D Transform)
N60 (Time: Mon Jun  3 23:21:08 2024)
N70 G21 (Units in millimeters)
N80 G90 (Absolute programming)
N90 G53 (machine coordinate system)
N100 G64 (Default cutting)
N110 G17 (XY plane)
N120 G40 (Cancel radius comp.)
N130 G49 (Cancel length comp.)
N140 F1
N150 G00 Z0.000
N160 M03 (Turn-on Cutter)
N170 G04 P2 (Pause)
N180 
(*** LAYER: 0 ***)
N190 
(* SHAPE Nr: 0 *)
N200 G00 X   0.000 Y   0.000
N210 G01 X   0.000 Y  17.240
N220 G01 X  44.036 Y  27.703
N230 G01 X  90.882 Y  37.083
N240 G01 X 140.656 Y  45.266
N250 G01 X 193.479 Y  52.138
N260 G01 X 249.469 Y  57.584
N270 G01 X 295.762 Y  60.789
N280 G01 X 344.141 Y  62.989
N290 G01 X 394.666 Y  64.128
N300 G01 X 447.394 Y  64.151
N310 G01 X 502.383 Y  63.003
N320 G01 X 717.980 Y  64.426
N330 G01 X 887.377 Y  65.679
N340 G01 X 890.515 Y  65.703
N350 G01 X 938.613 Y  66.109
N360 G01 X 976.406 Y  66.467
N370 G01 X 976.406 Y   0.000
N380 G00 X   0.000 Y   0.000
N390 M05 (Turn-off Cutter)
N400 M30 (End of Program)