N10 (Generated with: DXF2GCODE)
N20 (Version: Py3.11.1 PyQt5.15.8, Date: $Date: Mon Feb 6 21:49:45 2023 +0100 $)
N30 (Created from file: C:/Users/rfranca/Development/SolidWorks/EcoMaua/bolja22/dxf_ofcial_2024/final/output2/bolha_nova_modelo_s_p2.DXF)
N40 (Used Postprocessor: styrofoam_3dtransform.cfg) 
N50 (Output format description: Styrofoam cutting G-CODE for 3D Transform)
N60 (Time: Mon Jun  3 23:20:21 2024)
N70 G21 (Units in millimeters)
N80 G90 (Absolute programming)
N90 G53 (machine coordinate system)
N100 G64 (Default cutting)
N110 G17 (XY plane)
N120 G40 (Cancel radius comp.)
N130 G49 (Cancel length comp.)
N140 F1
N150 G00 Z0.000
N160 M03 (Turn-on Cutter)
N170 G04 P2 (Pause)
N180 
(*** LAYER: 0 ***)
N190 
(* SHAPE Nr: 0 *)
N200 G00 X   0.000 Y   0.000
N210 G01 X   0.000 Y 530.000
N220 G01 X  78.583 Y 520.924
N230 G01 X 156.325 Y 511.621
N240 G01 X 232.810 Y 502.155
N250 G01 X 307.620 Y 492.592
N260 G01 X 380.341 Y 482.998
N270 G01 X 435.741 Y 475.480
N280 G01 X 489.391 Y 468.015
N290 G01 X 541.091 Y 460.633
N300 G01 X 590.637 Y 453.368
N310 G01 X 637.828 Y 446.250
N320 G01 X 687.589 Y 438.480
N330 G01 X 734.569 Y 430.754
N340 G01 X 779.156 Y 422.899
N350 G01 X 821.738 Y 414.740
N360 G01 X 862.685 Y 406.114
N370 G01 X 902.132 Y 396.971
N380 G01 X 940.051 Y 387.342
N390 G01 X 976.406 Y 377.261
N400 G01 X 976.406 Y   0.000
N410 G00 X   0.000 Y   0.000
N420 M05 (Turn-off Cutter)
N430 M30 (End of Program)