N10 (Generated with: DXF2GCODE)
N20 (Version: Py3.11.1 PyQt5.15.8, Date: $Date: Mon Feb 6 21:49:45 2023 +0100 $)
N30 (Created from file: C:/Users/rfranca/Development/SolidWorks/EcoMaua/bolja22/dxf_ofcial_2024/final/output2/bolha_nova_modelo_s_p1.DXF)
N40 (Used Postprocessor: styrofoam_3dtransform.cfg) 
N50 (Output format description: Styrofoam cutting G-CODE for 3D Transform)
N60 (Time: Mon Jun  3 23:19:54 2024)
N70 G21 (Units in millimeters)
N80 G90 (Absolute programming)
N90 G53 (machine coordinate system)
N100 G64 (Default cutting)
N110 G17 (XY plane)
N120 G40 (Cancel radius comp.)
N130 G49 (Cancel length comp.)
N140 F1
N150 G00 Z0.000
N160 M03 (Turn-on Cutter)
N170 G04 P2 (Pause)
N180 
(*** LAYER: 0 ***)
N190 
(* SHAPE Nr: 0 *)
N200 G00 X   0.000 Y   0.000
N210 G01 X   0.000 Y 602.628
N220 G01 X  64.616 Y 600.589
N230 G01 X 128.319 Y 598.410
N240 G01 X 192.085 Y 595.915
N250 G01 X 256.890 Y 592.931
N260 G01 X 323.711 Y 589.284
N270 G01 X 393.407 Y 584.819
N280 G01 X 461.734 Y 579.859
N290 G01 X 532.226 Y 574.228
N300 G01 X 604.514 Y 567.984
N310 G01 X 678.232 Y 561.186
N320 G01 X 753.013 Y 553.889
N330 G01 X 877.974 Y 540.888
N340 G01 X 976.406 Y 530.000
N350 G01 X 976.406 Y   0.000
N360 G00 X   0.000 Y   0.000
N370 M05 (Turn-off Cutter)
N380 M30 (End of Program)