N70 G21 (Units in millimeters)
N80 G90 (Absolute programming)
N90 G53 (machine coordinate system)
N100 G64 (Default cutting)
N110 G17 (XY plane)
N210 G01 X   0.000 Y 602.628 Z 0.000
N220 G01 X  64.616 Y 600.589 Z 0.000
N230 G01 X 128.319 Y 598.410 Z 0.000
N240 G01 X 192.085 Y 595.915 Z 0.000
N250 G01 X 256.890 Y 592.931 Z 0.000
N260 G01 X 323.711 Y 589.284 Z 0.000
N270 G01 X 393.407 Y 584.819 Z 0.000
N280 G01 X 461.734 Y 579.859 Z 0.000
N290 G01 X 532.226 Y 574.228 Z 0.000
N300 G01 X 604.514 Y 567.984 Z 0.000
N310 G01 X 678.232 Y 561.186 Z 0.000
N320 G01 X 753.013 Y 553.889 Z 0.000
N330 G01 X 877.974 Y 540.888 Z 0.000
N340 G01 X 976.406 Y 530.000 Z 0.000
N350 G01 X 976.406 Y   0.000 Z 0.000
N350 G01 X1500.000 Y   0.000 Z 0.000
