N70 G21 (Units in millimeters)
N80 G90 (Absolute programming)
N90 G53 (machine coordinate system)
N100 G64 (Default cutting)
N110 G17 (XY plane)
N210 G01 X   0.000 Y 530.000 Z 0.000
N220 G01 X  78.583 Y 520.924 Z 0.000
N230 G01 X 156.325 Y 511.621 Z 0.000
N240 G01 X 232.810 Y 502.155 Z 0.000
N250 G01 X 307.620 Y 492.592 Z 0.000
N260 G01 X 380.341 Y 482.998 Z 0.000
N270 G01 X 435.741 Y 475.480 Z 0.000
N280 G01 X 489.391 Y 468.015 Z 0.000
N290 G01 X 541.091 Y 460.633 Z 0.000
N300 G01 X 590.637 Y 453.368 Z 0.000
N310 G01 X 637.828 Y 446.250 Z 0.000
N320 G01 X 687.589 Y 438.480 Z 0.000
N330 G01 X 734.569 Y 430.754 Z 0.000
N340 G01 X 779.156 Y 422.899 Z 0.000
N350 G01 X 821.738 Y 414.740 Z 0.000
N360 G01 X 862.685 Y 406.114 Z 0.000
N370 G01 X 902.132 Y 396.971 Z 0.000
N380 G01 X 940.051 Y 387.342 Z 0.000
N390 G01 X 976.406 Y 377.261 Z 0.000
N400 G01 X 976.406 Y   0.000 Z 0.000
N350 G01 X1500.000 Y   0.000 Z 0.000