N70 G21 (Units in millimeters)
N80 G90 (Absolute programming)
N90 G53 (machine coordinate system)
N100 G64 (Default cutting)
N110 G17 (XY plane)
N210 G01 X   0.000 Y  17.240 Z 0.000
N220 G01 X  44.036 Y  27.703 Z 0.000
N230 G01 X  90.882 Y  37.083 Z 0.000
N240 G01 X 140.656 Y  45.266 Z 0.000
N250 G01 X 193.479 Y  52.138 Z 0.000
N260 G01 X 249.469 Y  57.584 Z 0.000
N270 G01 X 295.762 Y  60.789 Z 0.000
N280 G01 X 344.141 Y  62.989 Z 0.000
N290 G01 X 394.666 Y  64.128 Z 0.000
N300 G01 X 447.394 Y  64.151 Z 0.000
N310 G01 X 502.383 Y  63.003 Z 0.000
N320 G01 X 717.980 Y  64.426 Z 0.000
N330 G01 X 887.377 Y  65.679 Z 0.000
N340 G01 X 890.515 Y  65.703 Z 0.000
N350 G01 X 938.613 Y  66.109 Z 0.000
N360 G01 X 976.406 Y  66.467 Z 0.000
N370 G01 X 976.406 Y   0.000 Z 0.000
N350 G01 X1500.000 Y   0.000 Z 0.000