N70 G21 (Units in millimeters)
N80 G90 (Absolute programming)
N90 G53 (machine coordinate system)
N100 G64 (Default cutting)
N110 G17 (XY plane)
N150 G01 X   0.000 Y 261.575 Z 0.000
N160 G01 X   4.725 Y 258.066 Z 0.000
N170 G01 X   7.767 Y 255.807 Z 0.000
N180 G01 X   9.499 Y 254.522 Z 0.000
N190 G01 X  10.290 Y 253.934 Z 0.000
N200 G01 X  10.513 Y 253.770 Z 0.000
N210 G01 X  10.525 Y 253.761 Z 0.000
N220 G01 X  10.528 Y 253.759 Z 0.000
N230 G01 X  10.532 Y 253.757 Z 0.000
N240 G01 X  10.566 Y 253.732 Z 0.000
N250 G01 X  11.302 Y 253.188 Z 0.000
N260 G01 X  13.875 Y 251.282 Z 0.000
N270 G01 X  19.297 Y 247.264 Z 0.000
N280 G01 X  26.801 Y 241.708 Z 0.000
N290 G01 X  35.784 Y 235.065 Z 0.000
N300 G01 X  45.644 Y 227.785 Z 0.000
N310 G01 X  55.823 Y 220.286 Z 0.000
N320 G01 X  66.145 Y 212.711 Z 0.000
N330 G01 X  76.618 Y 205.065 Z 0.000
N340 G01 X 106.161 Y 183.811 Z 0.000
N350 G01 X 137.212 Y 162.189 Z 0.000
N360 G01 X 148.957 Y 154.266 Z 0.000
N370 G01 X 161.080 Y 146.273 Z 0.000
N380 G01 X 173.804 Y 138.116 Z 0.000
N390 G01 X 187.354 Y 129.701 Z 0.000
N400 G01 X 201.894 Y 120.973 Z 0.000
N410 G01 X 216.515 Y 112.493 Z 0.000
N420 G01 X 229.544 Y 105.264 Z 0.000
N430 G01 X 249.662 Y  94.986 Z 0.000
N440 G01 X 269.844 Y  85.796 Z 0.000
N450 G01 X 290.749 Y  77.891 Z 0.000
N460 G01 X 312.349 Y  72.116 Z 0.000
N470 G01 X 334.207 Y  69.481 Z 0.000
N480 G01 X 355.618 Y  70.516 Z 0.000
N490 G01 X 375.769 Y  74.735 Z 0.000
N500 G01 X 393.597 Y  81.088 Z 0.000
N510 G01 X 410.210 Y  89.226 Z 0.000
N520 G01 X 427.434 Y  99.783 Z 0.000
N530 G01 X 444.403 Y 112.170 Z 0.000
N540 G01 X 459.992 Y 125.383 Z 0.000
N550 G01 X 473.861 Y 138.693 Z 0.000
N560 G01 X 486.527 Y 152.109 Z 0.000
N570 G01 X 498.187 Y 165.588 Z 0.000
N580 G01 X 510.514 Y 180.891 Z 0.000
N590 G01 X 523.500 Y 198.106 Z 0.000
N600 G01 X 537.006 Y 217.229 Z 0.000
N610 G01 X 551.186 Y 238.680 Z 0.000
N620 G01 X 561.594 Y 255.263 Z 0.000
N630 G01 X 570.647 Y 270.300 Z 0.000
N640 G01 X 578.759 Y 284.324 Z 0.000
N650 G01 X 592.292 Y 308.574 Z 0.000
N660 G01 X 594.470 Y 312.556 Z 0.000
N670 G01 X 596.665 Y 316.583 Z 0.000
N680 G01 X 598.916 Y 320.726 Z 0.000
N690 G01 X 601.295 Y 325.111 Z 0.000
N700 G01 X 603.876 Y 329.867 Z 0.000
N710 G01 X 606.791 Y 335.220 Z 0.000
N720 G01 X 610.477 Y 341.907 Z 0.000
N730 G01 X 615.467 Y 350.821 Z 0.000
N740 G01 X 615.038 Y 340.964 Z 0.000
N750 G01 X 614.696 Y 333.099 Z 0.000
N760 G01 X 614.430 Y 326.982 Z 0.000
N770 G01 X 614.230 Y 322.369 Z 0.000
N780 G01 X 614.048 Y 318.135 Z 0.000
N790 G01 X 613.939 Y 315.562 Z 0.000
N800 G01 X 613.879 Y 314.069 Z 0.000
N810 G01 X 613.838 Y 312.961 Z 0.000
N820 G01 X 613.792 Y 311.664 Z 0.000
N830 G01 X 613.706 Y 309.354 Z 0.000
N840 G01 X 613.543 Y 305.205 Z 0.000
N850 G01 X 613.311 Y 299.442 Z 0.000
N860 G01 X 612.992 Y 291.480 Z 0.000
N870 G01 X 612.585 Y 281.211 Z 0.000
N880 G01 X 612.089 Y 268.526 Z 0.000
N890 G01 X 611.506 Y 253.315 Z 0.000
N900 G01 X 610.834 Y 235.471 Z 0.000
N910 G01 X 610.111 Y 215.880 Z 0.000
N920 G01 X 609.308 Y 193.695 Z 0.000
N930 G01 X 608.424 Y 168.821 Z 0.000
N940 G01 X 607.460 Y 141.164 Z 0.000
N950 G01 X 606.416 Y 110.629 Z 0.000
N960 G01 X 605.292 Y  77.120 Z 0.000
N970 G01 X 604.087 Y  40.543 Z 0.000
N980 G01 X 602.801 Y   0.804 Z 0.000
N980 G01 X 602.801 Y   0.000 Z 0.000
N1000 G01 X1500.000 Y   0.000 Z 0.000