N70 G21 (Units in millimeters)
N80 G90 (Absolute programming)
N90 G53 (machine coordinate system)
N100 G64 (Default cutting)
N110 G17 (XY plane)
N170 G01 X   6.761 Y  23.450 Z 0.000
N180 G01 X  12.765 Y  43.556 Z 0.000
N190 G01 X  18.116 Y  60.779 Z 0.000
N200 G01 X  22.918 Y  75.577 Z 0.000
N210 G01 X  27.275 Y  88.411 Z 0.000
N220 G01 X  31.289 Y  99.740 Z 0.000
N230 G01 X  35.065 Y 110.024 Z 0.000
N240 G01 X  41.621 Y 127.222 Z 0.000
N250 G01 X  47.892 Y 142.857 Z 0.000
N260 G01 X  54.076 Y 157.498 Z 0.000
N270 G01 X  65.443 Y 182.735 Z 0.000
N280 G01 X  77.154 Y 206.966 Z 0.000
N290 G01 X  88.778 Y 229.429 Z 0.000
N300 G01 X 102.379 Y 253.754 Z 0.000
N310 G01 X 117.430 Y 278.618 Z 0.000
N320 G01 X 134.315 Y 304.314 Z 0.000
N330 G01 X 139.311 Y 311.597 Z 0.000
N340 G01 X 144.357 Y 318.854 Z 0.000
N350 G01 X 149.380 Y 326.000 Z 0.000
N360 G01 X 154.059 Y 332.607 Z 0.000
N370 G01 X 157.978 Y 338.113 Z 0.000
N380 G01 X 160.722 Y 341.957 Z 0.000
N390 G01 X 161.954 Y 343.689 Z 0.000
N400 G01 X 161.993 Y 343.746 Z 0.000
N410 G01 X 162.007 Y 343.767 Z 0.000
N420 G01 X 162.007 Y 343.767 Z 0.000
N430 G01 X 161.987 Y 343.744 Z 0.000
N440 G01 X 161.984 Y 343.742 Z 0.000
N450 G01 X 161.985 Y 343.744 Z 0.000
N460 G01 X 161.988 Y 343.749 Z 0.000
N470 G01 X 162.071 Y 343.867 Z 0.000
N480 G01 X 162.439 Y 344.378 Z 0.000
N490 G01 X 163.257 Y 345.513 Z 0.000
N500 G01 X 164.695 Y 347.507 Z 0.000
N510 G01 X 166.923 Y 350.596 Z 0.000
N520 G01 X 367.550 Y 350.596 Z 0.000
N530 G01 X 369.779 Y 347.507 Z 0.000
N540 G01 X 371.216 Y 345.513 Z 0.000
N550 G01 X 372.034 Y 344.378 Z 0.000
N560 G01 X 372.402 Y 343.867 Z 0.000
N570 G01 X 372.485 Y 343.749 Z 0.000
N580 G01 X 372.488 Y 343.744 Z 0.000
N590 G01 X 372.490 Y 343.741 Z 0.000
N600 G01 X 372.487 Y 343.744 Z 0.000
N610 G01 X 372.468 Y 343.768 Z 0.000
N620 G01 X 372.467 Y 343.768 Z 0.000
N630 G01 X 372.481 Y 343.746 Z 0.000
N640 G01 X 372.520 Y 343.689 Z 0.000
N650 G01 X 373.752 Y 341.957 Z 0.000
N660 G01 X 376.496 Y 338.113 Z 0.000
N670 G01 X 380.415 Y 332.607 Z 0.000
N680 G01 X 385.093 Y 326.000 Z 0.000
N690 G01 X 390.116 Y 318.854 Z 0.000
N700 G01 X 395.162 Y 311.597 Z 0.000
N710 G01 X 400.159 Y 304.314 Z 0.000
N720 G01 X 417.043 Y 278.618 Z 0.000
N730 G01 X 432.094 Y 253.753 Z 0.000
N740 G01 X 445.696 Y 229.429 Z 0.000
N750 G01 X 457.319 Y 206.966 Z 0.000
N760 G01 X 469.031 Y 182.735 Z 0.000
N770 G01 X 480.397 Y 157.498 Z 0.000
N780 G01 X 486.582 Y 142.857 Z 0.000
N790 G01 X 492.852 Y 127.222 Z 0.000
N800 G01 X 499.409 Y 110.024 Z 0.000
N810 G01 X 503.184 Y  99.740 Z 0.000
N820 G01 X 507.199 Y  88.411 Z 0.000
N830 G01 X 511.555 Y  75.577 Z 0.000
N840 G01 X 516.357 Y  60.779 Z 0.000
N850 G01 X 521.709 Y  43.556 Z 0.000
N860 G01 X 527.713 Y  23.450 Z 0.000
N870 G01 X 534.473 Y   0.000 Z 0.000
N890 G01 X1500.000 Y   0.000 Z 0.000